X:202
T:Old High Reel, The
R:reel
D:Davy Spillane: Shadow Hunter
D:Moher
D:Skylark: Skylark
Z:id:hn-reel-202
M:C|
K:Dmix
~f3d ecAG|FD (3EFG AdcA|G2FG Adde|fded ^cdeg|
fd~d2 ecAG|FD (3EFG AdcA|G2FG Addc|A2GE FDD2:|
|:a2fa dafa|~a2fa defa|b2gb efgb|efgb efgb|
a2fa dafa|~a2fa defa|aggf feed|^cdAG FDD2:|
P:Variations:
|:~f3g ecAG|FD (3EFG AdcA|G2FG Adde|fded ^cdeg|
fd~d2 fdAG|FD~D2 AdcA|G2FG Addc|A2GE FDD2:|
|:~a3f defg|~a2fa defa|b2gb ebgb|b2gb efgb|
~a3f defg|~a3f defa|bgaf gefd|ABAG FDD2:|

